X:1
T:Partita IV Sarabande
T:BWV 828
T:J. S. Bach
%%score { ( 1 4 5 ) | ( 2 3 ) }
L:1/8
Q:1/4=96
M:3/4
K:D
V:1 treble nm="Harp"
V:4 treble 
V:5 treble 
V:2 bass 
V:3 bass 
V:1
"^Andante" f/4e/4d3/2 d2 d/4c/4d/4c/4d/4c/4d/ | z/ z B/4=c/4 a4 | B/A/B/d/- d/c/e/d/ c/B/A/G/ | %3
 F/A/G/F/ G/F/E/F/ E/DE/ | F/4^G/4AG/ A/E/4D/4E/c/- c/d/E/B/ | c/4^d/4ed/ e/B/4A/4B/^g/- g/a/B/f/ | %6
 ^g/4a/4ba/4g/4 f/4e/<a/g/4f/4e/4 ^d/4e/4fA/ | %7
 ^G/4F/4E/d/B/ G/E/B,/^G,/ E,/F,/4G,/4A,/4B,/4C/4D/4 | %8
 C/4E/4A^G/ A/E/4A/4c/4B/4A/4G/4 A/E/4A/4c/4B/4A/4G/4 | %9
 A/4c/4dc/ d/A/4d/4f/4e/4d/4c/4 d/A/4d/4f/4e/4d/4c/4 | %10
 d/4f/4e/4d/4c/4B/4c/4e/4 a/^g/4f/4e/4d/4c/4B/4 c/A/E/^G/ | A2- A/A^G/ [EA]2 | %12
 f/4e/4d3/2 d2 d/4c/4d/4c/4d/4c/4d/ | z/ z B/4=c/4 a4 | B/A/B/d/- d/c/e/d/ c/B/A/G/ | %15
 F/A/G/F/ G/F/E/F/ E/DE/ | F/4^G/4AG/ A/E/4D/4E/c/- c/d/E/B/ | c/4^d/4ed/ e/B/4A/4B/^g/- g/a/B/f/ | %18
 ^g/4a/4ba/4g/4 f/4e/<a/g/4f/4e/4 ^d/4e/4fA/ | %19
 ^G/4F/4E/d/B/ G/E/B,/^G,/ E,/F,/4G,/4A,/4B,/4C/4D/4 | %20
 C/4E/4A^G/ A/E/4A/4c/4B/4A/4G/4 A/E/4A/4c/4B/4A/4G/4 | %21
 A/4c/4dc/ d/A/4d/4f/4e/4d/4c/4 d/A/4d/4f/4e/4d/4c/4 | %22
 d/4f/4e/4d/4c/4B/4c/4e/4 a/^g/4f/4e/4d/4c/4B/4 c/A/E/^G/ | A2- A/A^G/ [EA]2 | %24
 c/4B/4A3/2 A2 A/4G/4A/4G/4F/G/ | z2 e4 | d/d/4c/4B/g/- g/4f/4e/f/=c/- c/4B/4^A/B/e/- | %27
 e/^A/B/c/ B/A/^G/A/ G/FA/4c/4 | d/4c/4Bc/4^d/4 e/4d/4cd/4e/4 f/4e/4de/4f/4 | %29
 g/4f/4e/-e/4B/4e/4f/4 g/4f/4e/4d/4c/4B/4^A/4^G/4 A/4c/4e=G/ | %30
 F/4G/4F/4E/4E/4F/4E/4D/4 D/4E/4D/4C/4C/4D/4C/4B,/4 B,/4C/4B,/4^A,/<E/D/4 | %31
{C} B,B,/4C/4D/4E/4 F/4E/4D/-D/4E/4F/4G/4 A/4G/4F/-F/4G/4A/4B/4 | %32
 =c/4B/4A^d/ e/B/4A/4B/g/- g/a/c/B/ | A/4G/4Ag/ f/4e/4^de/4g/4 =c'/4b/4a^g/4a/4 | %34
 B/4a/4g/4f/4g/e/ =c/=f/^d/e/- e/d/4^c/4d/4^f/4a/- | %35
 a/g/4f/4g- g/4f/4e/4f/4g/4f/4e/4d/4 c/4B/4A/4B/4c/4d/4e/4f/4 | %36
 g/4A/4^G/4A/4B/4c/4d/4e/4 f/=c/4B/4c/g/ a/c/B/A/ | %37
 B/4G/4F/4G/4A/4B/4c/4d/4 c/G/4F/4G/d/ e/G/F/E/ | %38
 F/4A/4B/4c/4d/4c/4d/- d/4^g/4a/4b/4a/4g/4f/4e/4 d/4c/4d/b/d/ | d<c c/4d/4e/4d/4c/4d/4c/4B/4 B<A | %40
 f/4e/4d3/2 (8:7:8d/c/d/c/d/c/d/c/d/ | z/ z B/4=c/4 a4 | B/4c/4dc/ d/A/4G/4A/f/- f/g/A/g/ | %43
 f/4g/4ag/4f/4 e/4f/4gf/4e/4 d/4e/4fe/4d/4 | %44
 c/4e/4d/4c/4d/4c/4B/4A/4- A/4f/4e/4d/4e/4c/4B/4A/4- A/4g/4f/4e/4f/4c/4B/4A/4- | %45
 A/4a/4g/4f/4g/4f/4e/4d/4 c/4e/4d/4c/4d/4c/4B/4A/4 G/4B/4A/4G/4A/4G/4F/4E/4 | %46
 F/4A/4DC/ D/A,/4D/4F/4E/4D/4C/4 D/A,/4D/4F/4E/4D/4C/4 | %47
 D/4F/4GF/ G/E/4G/4B/4A/4G/4F/4 G/D/4G/4B/4A/4G/4F/4 | %48
 G/4B/4A/4G/4F/4E/4F/4A/4 d/c/4B/4A/4G/4F/4E/4 F/D/A,/C/ | D2[K:bass] F,/A,/D/C/ D2 | %50
[K:treble] c/4B/4A3/2 A2 A/4G/4A/4G/4F/G/ | z2 e4 | d/d/4c/4B/g/- g/4f/4e/f/=c/- c/4B/4^A/B/e/- | %53
 e/^A/B/c/ B/A/^G/A/ G/FA/4c/4 | d/4c/4Bc/4^d/4 e/4d/4cd/4e/4 f/4e/4de/4f/4 | %55
 g/4f/4e/-e/4B/4e/4f/4 g/4f/4e/4d/4c/4B/4^A/4^G/4 A/4c/4e=G/ | %56
 F/4G/4F/4E/4E/4F/4E/4D/4 D/4E/4D/4C/4C/4D/4C/4B,/4 B,/4C/4B,/4^A,/<E/D/4 | %57
{C} B,B,/4C/4D/4E/4 F/4E/4D/-D/4E/4F/4G/4 A/4G/4F/-F/4G/4A/4B/4 | %58
 =c/4B/4A^d/ e/B/4A/4B/g/- g/a/c/B/ | A/4G/4Ag/ f/4e/4^de/4g/4 =c'/4b/4a^g/4a/4 | %60
 B/4a/4g/4f/4g/e/ =c/=f/^d/e/- e/d/4^c/4d/4^f/4a/- | %61
 a/g/4f/4g- g/4f/4e/4f/4g/4f/4e/4d/4 c/4B/4A/4B/4c/4d/4e/4f/4 | %62
 g/4A/4^G/4A/4B/4c/4d/4e/4 f/=c/4B/4c/g/ a/c/B/A/ | %63
 B/4G/4F/4G/4A/4B/4c/4d/4 c/G/4F/4G/d/ e/G/F/E/ | %64
 F/4A/4B/4c/4d/4c/4d/- d/4^g/4a/4b/4a/4g/4f/4e/4 d/4c/4d/b/d/ | d<c c/4d/4e/4d/4c/4d/4c/4B/4 B<A | %66
 f/4e/4d3/2 (8:7:8d/c/d/c/d/c/d/c/d/ | z/ z B/4=c/4 a4 | B/4c/4dc/ d/A/4G/4A/f/- f/g/A/g/ | %69
 f/4g/4ag/4f/4 e/4f/4gf/4e/4 d/4e/4fe/4d/4 | %70
 c/4e/4d/4c/4d/4c/4B/4A/4- A/4f/4e/4d/4e/4c/4B/4A/4- A/4g/4f/4e/4f/4c/4B/4A/4- | %71
 A/4a/4g/4f/4g/4f/4e/4d/4 c/4e/4d/4c/4d/4c/4B/4A/4 G/4B/4A/4G/4A/4G/4F/4E/4 | %72
 F/4A/4DC/ D/A,/4D/4F/4E/4D/4C/4 D/A,/4D/4F/4E/4D/4C/4 | %73
 D/4F/4GF/ G/E/4G/4B/4A/4G/4F/4 G/D/4G/4B/4A/4G/4F/4 | %74
 G/4B/4A/4G/4F/4E/4F/4A/4 d/c/4B/4A/4G/4F/4E/4 F/D/A,/C/ | D2[K:bass] F,/A,/D/C/ !fermata!D2 |] %76
V:2
 [DA]2 [EG]4 | F/G/A/ z/ z4 | GF EG A,C | DA, D,A,, F,,A,, | D,,D/B,/ CA, B,^G, | %5
 A,,A,/F,/ ^G,E, F,^D, | E,,D,/B,,/ C,A,, F,,^D, | E,E,, z4 | A,B, CE CA, | F,E, F,A, F,D, | %10
 B,,/^G,/A,/E,/ C,/B,,/C,/D,/ E,2- | E,D, E,=F, E,2 | [DA]2 [EG]4 | F/G/A/ z/ z4 | GF EG A,C | %15
 DA, D,A,, F,,A,, | D,,D/B,/ CA, B,^G, | A,,A,/F,/ ^G,E, F,^D, | E,,D,/B,,/ C,A,, F,,^D, | %19
 E,E,, z4 | A,B, CE CA, | F,E, F,A, F,D, | B,,/^G,/A,/E,/ C,/B,,/C,/D,/ E,2- | E,D, E,=F, E,2 | %24
 [A,E]2 [B,D]2 [CE]2 | (6:4:6^A,/B,/C/D/[I:staff -1]E/F/[I:staff +1] z4 | B,G C^D G,E | F,G FE DC | %28
 B,A, G,A, G,F, | E,D, C,D, C,B,, | ^A,,B,, E,G, F,F,, | B,,C, D,E, F,G, | A,F, G,E, ED | %33
 =CA, B,G, A,F, | ^DE A,=C F,B, | E,B,, E,,B,, E,D, | C,A,, D,E, F,D, | G,E, A,B, CA, | %38
 DB, EF ^GE | AB AG FE | [DA]2 [EG]4 | F/G/A/ z/ z4 | GE FD EC | DB, CA, B,^G, | A,E, G,C, E,A,, | %45
 C,,2 z2 z C, | D,E, F,A, F,D, | B,,A,, B,,D, B,,G,, | E,,/C,/D,/A,,/ F,,/E,,/F,,/G,,/ A,,A,,, | %49
 D,,/F,,/A,,/D,/- D,4 | [A,E]2 [B,D]2 [CE]2 | (6:4:6^A,/B,/C/D/[I:staff -1]E/F/[I:staff +1] z4 | %52
 B,G C^D G,E | F,G FE DC | B,A, G,A, G,F, | E,D, C,D, C,B,, | ^A,,B,, E,G, F,F,, | %57
 B,,C, D,E, F,G, | A,F, G,E, ED | =CA, B,G, A,F, | ^DE A,=C F,B, | E,B,, E,,B,, E,D, | %62
 C,A,, D,E, F,D, | G,E, A,B, CA, | DB, EF ^GE | AB AG FE | [DA]2 [EG]4 | F/G/A/ z/ z4 | GE FD EC | %69
 DB, CA, B,^G, | A,E, G,C, E,A,, | C,,2 z2 z C, | D,E, F,A, F,D, | B,,A,, B,,D, B,,G,, | %74
 E,,/C,/D,/A,,/ F,,/E,,/F,,/G,,/ A,,A,,, | D,,/F,,/A,,/D,/- !fermata!D,4 |] %76
V:3
 x6 | x6 | x6 | x6 | x6 | x6 | x6 | x6 | x6 | x6 | z4 E,E,, | A,,6 | x6 | x6 | x6 | x6 | x6 | x6 | %18
 x6 | x6 | x6 | x6 | z4 E,E,, | A,,6 | x6 | x6 | x6 | x6 | x6 | x6 | x6 | x6 | x6 | x6 | x6 | x6 | %36
 x6 | x6 | x6 | x6 | x6 | x6 | x6 | x6 | x6 | x6 | x6 | x6 | x6 | D,,6 | x6 | x6 | x6 | x6 | x6 | %55
 x6 | x6 | x6 | x6 | x6 | x6 | x6 | x6 | x6 | x6 | x6 | x6 | x6 | x6 | x6 | x6 | x6 | x6 | x6 | %74
 x6 | !fermata!D,,6 |] %76
V:4
 x6 | x6 | x6 | x6 | x6 | x6 | x6 | x6 | x6 | x6 | x6 | z/ E/F/D/ C[B,D] [A,C]2 | x6 | x6 | x6 | %15
 x6 | x6 | x6 | x6 | x6 | x6 | x6 | x6 | z/ E/F/D/ C[B,D] [A,C]2 | x6 | x6 | x6 | x6 | x6 | x6 | %30
 x6 | x6 | x6 | x6 | x6 | x6 | x6 | x6 | x6 | x6 | x6 | x6 | x6 | x6 | x6 | x6 | x6 | x6 | x6 | %49
 z2[K:bass] F,>E, F,2 |[K:treble] x6 | x6 | x6 | x6 | x6 | x6 | x6 | x6 | x6 | x6 | x6 | x6 | x6 | %63
 x6 | x6 | x6 | x6 | x6 | x6 | x6 | x6 | x6 | x6 | x6 | x6 | z2[K:bass] F,>E, F,2 |] %76
V:5
 x6 | x6 | x6 | x6 | x6 | x6 | x6 | x6 | x6 | x6 | x6 | x6 | x6 | x6 | x6 | x6 | x6 | x6 | x6 | %19
 x6 | x6 | x6 | x6 | x6 | x6 | x6 | x6 | x6 | x6 | x6 | x6 | x6 | x6 | x6 | x6 | x6 | x6 | x6 | %38
 x6 | x6 | x6 | x6 | x6 | x6 | x6 | x6 | x6 | x6 | x6 | z2[K:bass] z/ A,G,/ A,2 |[K:treble] x6 | %51
 x6 | x6 | x6 | x6 | x6 | x6 | x6 | x6 | x6 | x6 | x6 | x6 | x6 | x6 | x6 | x6 | x6 | x6 | x6 | %70
 x6 | x6 | x6 | x6 | x6 | z2[K:bass] z/ A,G,/ A,2 |] %76

